icons/lines/judge.svg

<svg xmlns="http://www.w3.org/2000/svg" width="24" height="24" viewBox="0 0 24 24" fill="none" stroke="currentColor" stroke-width="2" stroke-linecap="round" stroke-linejoin="round" >
  <path d="M20.0096 18.51L15.0596 13.56" stroke-miterlimit="10"/>
  <path d="M15.0602 13.56L11.5202 17.1C10.7402 17.88 9.47024 17.88 8.69024 17.1L4.45023 12.86C3.67023 12.08 3.67023 10.81 4.45023 10.03L11.5202 2.96C12.3002 2.18 13.5702 2.18 14.3502 2.96L18.5902 7.20002C19.3702 7.98002 19.3702 9.25001 18.5902 10.03L15.0602 13.56Z" stroke-miterlimit="10"/>
  <path d="M2 21H8" stroke-miterlimit="10"/>
  <path d="M6.55957 7.92004L13.6296 14.99" stroke-miterlimit="10"/>
  </svg>

<svg xmlns="http://www.w3.org/2000/svg" width="24" height="24" viewBox="0 0 24 24" fill="none" stroke="currentColor" stroke-width="2" stroke-linecap="round" stroke-linejoin="round">
  <path d="M11.52 17.1a2 2 0 0 1-2.83 0l-4.24-4.24a2 2 0 0 1 0-2.83l7.07-7.07a2 2 0 0 1 2.83 0l4.24 4.24a2 2 0 0 1 0 2.83z" />
  <path d="M2 21h6" />
  <path d="m20.01 18.51-4.95-4.95" />
  <path d="m6.56 7.92 7.07 7.07" />
</svg>
